source/images/illustrations/capp-learning/capp-learning-skills-assessments.svg

<svg width="200" height="200" viewBox="0 0 200 200" fill="none" xmlns="http://www.w3.org/2000/svg">
<g clip-path="url(#clip0)">
<path opacity="0.1" d="M59.7571 168.477C114.122 198.748 199.891 168.421 193.334 108.775C190.474 82.7553 178.671 68.6793 160.235 50.2937C122.3 12.4618 70.2962 12.3439 29.1115 27.3798C-12.0731 42.4158 5.3927 138.207 59.7571 168.477Z" fill="#2EB769"/>
<mask id="mask0" mask-type="alpha" maskUnits="userSpaceOnUse" x="6" y="18" width="188" height="163">
<path d="M59.7571 168.477C114.122 198.748 199.891 168.421 193.334 108.775C190.474 82.7553 178.671 68.6793 160.235 50.2937C122.3 12.4618 70.2962 12.3439 29.1115 27.3798C-12.0731 42.4158 5.3927 138.207 59.7571 168.477Z" fill="#2EB769"/>
</mask>
<g mask="url(#mask0)">
<rect x="127.333" y="164.667" width="56" height="14.6667" fill="#8DDCAF"/>
<path d="M144.667 100H182.667V141.333H144.667V100Z" fill="#BFAA6C"/>
<path d="M200 166H127.333C127.333 140.615 152.312 136 152.312 136H175.021C175.021 136 200 140.615 200 166Z" fill="#8DDCAF"/>
<path d="M163.667 150.667C158.533 150.667 152 136.667 152 136.667V122.667H175.333V136.667C175.333 136.667 168.8 150.667 163.667 150.667Z" fill="#FF9800"/>
<path d="M184.667 97.5447C184.667 80.2284 142.667 86.1524 142.667 97.5447C142.667 100.051 142.667 110.988 142.667 113.494C142.667 124.886 152 134 163.667 134C175.333 134 184.667 124.886 184.667 113.494C184.667 110.988 184.667 100.051 184.667 97.5447Z" fill="#FFB74D"/>
<path d="M163.667 152.667C153.4 152.667 152 136 152 136C152 136 157.833 145.524 163.667 145.524C169.5 145.524 175.333 136 175.333 136C175.333 136 173.933 152.667 163.667 152.667Z" fill="#FFB74D"/>
<path d="M173 111.333C172.381 111.333 171.788 111.579 171.35 112.017C170.913 112.454 170.667 113.048 170.667 113.667C170.667 114.285 170.913 114.879 171.35 115.317C171.788 115.754 172.381 116 173 116C173.619 116 174.212 115.754 174.65 115.317C175.088 114.879 175.333 114.285 175.333 113.667C175.333 113.048 175.088 112.454 174.65 112.017C174.212 111.579 173.619 111.333 173 111.333ZM154.333 111.333C153.714 111.333 153.121 111.579 152.683 112.017C152.246 112.454 152 113.048 152 113.667C152 114.285 152.246 114.879 152.683 115.317C153.121 115.754 153.714 116 154.333 116C154.952 116 155.546 115.754 155.983 115.317C156.421 114.879 156.667 114.285 156.667 113.667C156.667 113.048 156.421 112.454 155.983 112.017C155.546 111.579 154.952 111.333 154.333 111.333Z" fill="#784719"/>
</g>
<path d="M163.667 75.3333C149.704 75.3333 129.333 83.0238 129.333 128.036L145.355 138.667V109.262L172.822 93.4285L181.978 104.738V138.667L198 125.095C198 116.048 196.398 79.8571 172.822 79.8571L170.533 75.3333H163.667Z" fill="#FFDF80"/>
<path d="M110.833 53H79.5834C79.5834 56.4729 76.7865 59.2857 73.3334 59.2857C69.8802 59.2857 67.0834 56.4729 67.0834 53H35.8334C28.924 53 23.3334 58.6226 23.3334 65.5714V166.143C23.3334 173.092 28.924 178.714 35.8334 178.714H110.833C117.743 178.714 123.333 173.092 123.333 166.143V65.5714C123.333 58.6226 117.743 53 110.833 53Z" fill="#303C80"/>
<rect x="32.3334" y="63" width="82" height="106" fill="white"/>
<path d="M79.6825 50.2143C79.6825 53.6872 76.8412 56.5 73.3333 56.5C69.8253 56.5 66.9841 53.6872 66.9841 50.2143H44.7618V62.7857C44.7618 66.2586 47.6031 69.0715 51.111 69.0715H95.5555C99.0634 69.0715 101.905 66.2586 101.905 62.7857V50.2143H79.6825Z" fill="#DADCE1"/>
<path d="M73.3333 37.6429C66.3269 37.6429 60.6349 43.278 60.6349 50.2143C60.6349 57.1506 66.3269 62.7857 73.3333 62.7857C80.3396 62.7857 86.0317 57.1506 86.0317 50.2143C86.0317 43.278 80.3396 37.6429 73.3333 37.6429ZM73.3333 56.5C69.8253 56.5 66.9841 53.6872 66.9841 50.2143C66.9841 46.7415 69.8253 43.9286 73.3333 43.9286C76.8412 43.9286 79.6825 46.7415 79.6825 50.2143C79.6825 53.6872 76.8412 56.5 73.3333 56.5Z" fill="#DADCE1"/>
<path d="M56.2601 106.435L54.1032 104.389L46.9801 111.271L43.7829 108.238L41.626 110.285L46.98 115.364L56.2601 106.435Z" fill="#8DDCAF"/>
<rect width="36.9565" height="5.99998" rx="2.99999" transform="matrix(1 0 0 -1 60.2899 113.298)" fill="#EAEAEA"/>
<rect width="7.6087" height="5.99998" rx="2.99999" transform="matrix(1 0 0 -1 100.507 113.298)" fill="#EAEAEA"/>
<path d="M56.2601 127.736L54.1032 125.689L46.9801 132.572L43.7829 129.539L41.626 131.585L46.98 136.665L56.2601 127.736Z" fill="#8DDCAF"/>
<rect width="18.4782" height="6" rx="3" transform="matrix(1 0 0 -1 60.2899 134.385)" fill="#EAEAEA"/>
<rect width="16.3044" height="6" rx="3" transform="matrix(1 0 0 -1 83.116 134.385)" fill="#EAEAEA"/>
<path d="M56.4458 148.823L54.2888 146.776L47.1658 153.659L43.9686 150.626L41.8116 152.672L47.1657 157.752L56.4458 148.823Z" fill="#8DDCAF"/>
<rect width="14.1304" height="6" rx="3" transform="matrix(1 0 0 -1 60.2899 155.472)" fill="#EAEAEA"/>
<rect width="30.4348" height="6" rx="3" transform="matrix(1 0 0 -1 77.6813 155.472)" fill="#EAEAEA"/>
<path d="M79.3334 81.5C79.3334 83.984 77.3192 86 74.8334 86C72.3476 86 70.3334 83.984 70.3334 81.5C70.3334 79.0142 72.3476 77 74.8334 77C77.3192 77 79.3334 79.0142 79.3334 81.5Z" fill="#FFA726"/>
<path d="M74.6666 75.3333C72.2266 75.3333 68.6666 76.7095 68.6666 84.7643L71.4666 86.6666V81.4047L76.2666 78.5714L77.8666 80.5952V86.6666L80.6666 84.2381C80.6666 82.619 80.3866 76.1428 76.2666 76.1428L75.8666 75.3333H74.6666Z" fill="#FFDF80"/>
<path d="M83.3334 92.0757C83.3334 92.0757 80.9798 88 74.8334 88C68.685 88 66.3334 92.0757 66.3334 92.0757V95H83.3334V92.0757Z" fill="#8DDCAF"/>
</g>
<defs>
<clipPath id="clip0">
<rect width="200" height="200" fill="white"/>
</clipPath>
</defs>
</svg>

<svg xmlns="http://www.w3.org/2000/svg" xmlns:xlink="http://www.w3.org/1999/xlink" width="193.63" height="162.32" viewBox="0 0 193.63 162.32"><defs><clipPath id="a" transform="translate(-6.37 -18.04)"><rect width="200" height="200" fill="none"/></clipPath><mask id="b" x="0" y="0" width="193.63" height="162.32" maskUnits="userSpaceOnUse"><g transform="translate(-6.37 -18.04)"><path d="M59.76,168.48c54.36,30.27,140.13-.06,133.57-59.7-2.86-26-14.66-40.1-33.09-58.49C122.3,12.46,70.3,12.34,29.11,27.38S5.39,138.21,59.76,168.48Z" fill="#2eb769"/></g></mask></defs><g clip-path="url(#a)"><path d="M59.76,168.48c54.36,30.27,140.13-.06,133.57-59.7-2.86-26-14.66-40.1-33.09-58.49C122.3,12.46,70.3,12.34,29.11,27.38S5.39,138.21,59.76,168.48Z" transform="translate(-6.37 -18.04)" fill="#2eb769" opacity="0.1" style="isolation:isolate"/><g mask="url(#b)"><rect x="120.96" y="146.63" width="56" height="14.67" fill="#8ddcaf"/><path d="M144.67,100h38v41.33h-38Z" transform="translate(-6.37 -18.04)" fill="#bfaa6c"/><path d="M200,166H127.33c0-25.38,25-30,25-30H175S200,140.62,200,166Z" transform="translate(-6.37 -18.04)" fill="#8ddcaf"/><path d="M163.67,150.67c-5.14,0-11.67-14-11.67-14v-14h23.33v14S168.8,150.67,163.67,150.67Z" transform="translate(-6.37 -18.04)" fill="#ff9800"/><path d="M184.67,97.54c0-17.31-42-11.39-42,0v15.95a21,21,0,0,0,42,0Z" transform="translate(-6.37 -18.04)" fill="#ffb74d"/><path d="M163.67,152.67C153.4,152.67,152,136,152,136s5.83,9.52,11.67,9.52S175.33,136,175.33,136,173.93,152.67,163.67,152.67Z" transform="translate(-6.37 -18.04)" fill="#ffb74d"/><path d="M173,111.33a2.33,2.33,0,0,0-1.65.69,2.34,2.34,0,0,0,0,3.3,2.34,2.34,0,0,0,3.3,0,2.34,2.34,0,0,0-1.65-4Zm-18.67,0a2.34,2.34,0,0,0-2.33,2.34,2.33,2.33,0,0,0,4,1.65,2.34,2.34,0,0,0-1.65-4Z" transform="translate(-6.37 -18.04)" fill="#784719"/></g><path d="M163.67,75.33c-14,0-34.34,7.69-34.34,52.71l16,10.63V109.26l27.47-15.83L182,104.74v33.93l16-13.57c0-9-1.6-45.24-25.18-45.24l-2.29-4.53Z" transform="translate(-6.37 -18.04)" fill="#ffdf80"/><path d="M110.83,53H79.58a6.25,6.25,0,1,1-12.5,0H35.83a12.53,12.53,0,0,0-12.5,12.57V166.14a12.53,12.53,0,0,0,12.5,12.57h75a12.53,12.53,0,0,0,12.5-12.57V65.57A12.53,12.53,0,0,0,110.83,53Z" transform="translate(-6.37 -18.04)" fill="#303c80"/><rect x="25.96" y="44.96" width="82" height="106" fill="#fff"/><path d="M79.68,50.21a6.35,6.35,0,0,1-12.7,0H44.76V62.79a6.31,6.31,0,0,0,6.35,6.28H95.56a6.31,6.31,0,0,0,6.34-6.28V50.21Z" transform="translate(-6.37 -18.04)" fill="#dadce1"/><path d="M73.33,37.64A12.58,12.58,0,1,0,86,50.21,12.65,12.65,0,0,0,73.33,37.64Zm0,18.86a6.29,6.29,0,1,1,6.35-6.29A6.32,6.32,0,0,1,73.33,56.5Z" transform="translate(-6.37 -18.04)" fill="#dadce1"/><path d="M56.26,106.43l-2.16-2L47,111.27l-3.2-3-2.15,2.05L47,115.36Z" transform="translate(-6.37 -18.04)" fill="#8ddcaf"/><path d="M63.29,113.3h31a3,3,0,0,0,3-3h0a3,3,0,0,0-3-3h-31a3,3,0,0,0-3,3h0A3,3,0,0,0,63.29,113.3Z" transform="translate(-6.37 -18.04)" fill="#eaeaea"/><path d="M103.51,113.3h1.61a3,3,0,0,0,3-3h0a3,3,0,0,0-3-3h-1.61a3,3,0,0,0-3,3h0A3,3,0,0,0,103.51,113.3Z" transform="translate(-6.37 -18.04)" fill="#eaeaea"/><path d="M56.26,127.74l-2.16-2L47,132.57l-3.2-3-2.15,2.05L47,136.66Z" transform="translate(-6.37 -18.04)" fill="#8ddcaf"/><path d="M63.29,134.38H75.77a3,3,0,0,0,3-3h0a3,3,0,0,0-3-3H63.29a3,3,0,0,0-3,3h0A3,3,0,0,0,63.29,134.38Z" transform="translate(-6.37 -18.04)" fill="#eaeaea"/><path d="M86.12,134.38h10.3a3,3,0,0,0,3-3h0a3,3,0,0,0-3-3H86.12a3,3,0,0,0-3,3h0A3,3,0,0,0,86.12,134.38Z" transform="translate(-6.37 -18.04)" fill="#eaeaea"/><path d="M56.45,148.82l-2.16-2-7.12,6.88-3.2-3-2.16,2,5.36,5.08Z" transform="translate(-6.37 -18.04)" fill="#8ddcaf"/><path d="M63.29,155.47h8.13a3,3,0,0,0,3-3h0a3,3,0,0,0-3-3H63.29a3,3,0,0,0-3,3h0A3,3,0,0,0,63.29,155.47Z" transform="translate(-6.37 -18.04)" fill="#eaeaea"/><path d="M80.68,155.47h24.44a3,3,0,0,0,3-3h0a3,3,0,0,0-3-3H80.68a3,3,0,0,0-3,3h0A3,3,0,0,0,80.68,155.47Z" transform="translate(-6.37 -18.04)" fill="#eaeaea"/><path d="M79.33,81.5a4.5,4.5,0,1,1-4.5-4.5A4.5,4.5,0,0,1,79.33,81.5Z" transform="translate(-6.37 -18.04)" fill="#ffa726"/><path d="M74.67,75.33c-2.44,0-6,1.38-6,9.43l2.8,1.91V81.4l4.8-2.83,1.6,2v6.07l2.8-2.43c0-1.62-.28-8.1-4.4-8.1l-.4-.81Z" transform="translate(-6.37 -18.04)" fill="#ffdf80"/><path d="M83.33,92.08S81,88,74.83,88s-8.5,4.08-8.5,4.08V95h17Z" transform="translate(-6.37 -18.04)" fill="#8ddcaf"/></g></svg>
